X: 2
T: Kapusta
O: Trad Finland
Z: John Chambers <jc@trillian.mit.edu>
M: 2/4
L: 1/8
K: Gm
|: "Gm"d2 ^c>A | dz d2 | dd ^cB | AG D2 \
| BB d2 | "D7"AA D2 | "Gm"GB "D7"A^F | "Gm"Gz G2 :|
%%sep 1 1 10cm
